fs/people_call_20_filled.svg

<svg viewBox="0 0 20 20" fill="none" xmlns="http://www.w3.org/2000/svg" height="1em" width="1em">
  <path d="M10 5.75C10 7.54493 8.54493 9 6.75 9C4.95507 9 3.5 7.54493 3.5 5.75C3.5 3.95507 4.95507 2.5 6.75 2.5C8.54493 2.5 10 3.95507 10 5.75ZM14.5 9C15.8807 9 17 7.88071 17 6.5C17 5.11929 15.8807 4 14.5 4C13.1193 4 12 5.11929 12 6.5C12 7.88071 13.1193 9 14.5 9ZM3.5 10C2.39543 10 1.5 10.8954 1.5 12C1.5 12 1.5 16 6.75 16C12 16 12 12 12 12C12 10.8954 11.1046 10 10 10H3.5ZM15.7337 10.3236L15.3345 11.2649L15.2967 11.3688C15.1782 11.7542 15.2835 12.1824 15.5732 12.4574L16.4527 13.2922L16.4225 13.5057C16.3481 13.9319 16.1904 14.3524 15.9491 14.7673C15.6677 15.2513 15.3162 15.6528 14.8947 15.9718L13.8384 15.6195L13.7377 15.5921C13.3666 15.513 12.9815 15.6695 12.7563 16.0003L12.1842 16.8409L12.1281 16.9331C11.9075 17.3419 11.9753 17.8644 12.3043 18.1947L12.6839 18.5758L12.7816 18.6656C13.1515 18.9761 13.6432 19.0798 14.1009 18.9371C15.2796 18.5694 16.3634 17.4777 17.3522 15.6622C18.3425 13.8439 18.692 12.3013 18.4007 11.0343C18.2781 10.5011 17.8986 10.0765 17.4029 9.91817L16.9031 9.75845L16.8091 9.73369C16.3693 9.64207 15.9209 9.88219 15.7337 10.3236Z" fill="#212121"/>
</svg>

<svg viewBox="0 0 20 20" fill="none" xmlns="http://www.w3.org/2000/svg" height="1em" width="1em">
  <path d="M10 5.75a3.25 3.25 0 1 1-6.5 0 3.25 3.25 0 0 1 6.5 0ZM14.5 9a2.5 2.5 0 1 0 0-5 2.5 2.5 0 0 0 0 5Zm-11 1a2 2 0 0 0-2 2s0 4 5.25 4S12 12 12 12a2 2 0 0 0-2-2H3.5Zm12.234.324-.4.94-.037.105c-.119.385-.014.813.276 1.088l.88.835-.03.214a3.805 3.805 0 0 1-.474 1.261 4.029 4.029 0 0 1-1.054 1.205l-1.057-.352-.1-.028a.948.948 0 0 0-.982.408l-.572.84-.056.093a1.08 1.08 0 0 0 .176 1.262l.38.38.098.09c.37.311.861.415 1.319.272 1.179-.368 2.262-1.46 3.251-3.275.99-1.818 1.34-3.36 1.049-4.628a1.514 1.514 0 0 0-.998-1.116l-.5-.16-.094-.024c-.44-.092-.888.148-1.075.59Z" fill="#212121"/>
</svg>
